X: 7241
T:Hoppvals
R:Polkett
R:Polkett
R:Snoa
C:e. Kristian Oskarsson
O:Sweden
A:J\"amtland
N:the ornament in bar 2 is a trill
M:2/4
L:1/16
K:D
P:Voice 1
FG |\
A2BA A2[G2(B2] | [B2)G2][FA][FA] [F2A2][F2A2] | \
D2FA fed2 | e2ee e2e2 |\
[A,3E3][A,E] [A,2E2][A,2E2] | [A,3A3][A,A] [A,2A2][A,2A2] | \
c2Ac e2A2 | [D6d6] :|
|: ef |\
g2ag f2d2 | f2af e2Ac | e2Ac e2c2 | g2ag fed2 |\
f2(3gfe f2de | f2af e2e[fd] | [c2e2]Ac e2A2 | [D6d6] :|
P:Voice 2
DE|\
F2GF F2(G2 | G2)FF F2F2 | D2FA dcB2 | A2AA A2A2 |\
[A3E3][AE] [A2E2][A2E2] | [A3E3][AE] [A2E2][A2E2] |\
A2AG [F2A2][A2E2] | [A6F6] :|
|: A2|\
e2fe d2A2 | d2fd c2EA | c2EA c2A2 | e2fe dBA2 |\
d2(3edc d2A2 | d2fd c2B2 | A2EA c2A2 | [F6A6] :|
